modules/hawcons-filled/icons/degree-celsius.svg

<?xml version="1.0" encoding="UTF-8" standalone="no"?>
<svg width="32px" height="32px" viewBox="0 0 32 32" version="1.1" xmlns="http://www.w3.org/2000/svg" xmlns:xlink="http://www.w3.org/1999/xlink" xmlns:sketch="http://www.bohemiancoding.com/sketch/ns">
    <!-- Generator: Sketch 3.0.3 (7891) - http://www.bohemiancoding.com/sketch -->
    <title>icon 60 degree celsius</title>
    <desc>Created with Sketch.</desc>
    <defs></defs>
    <g id="Page-1" stroke="none" stroke-width="1" fill="none" fill-rule="evenodd" sketch:type="MSPage">
        <g id="icon-60-degree-celsius" sketch:type="MSArtboardGroup" fill="#929292">
            <path d="M26,20 C25.4477153,20 25,20.4438648 24.9999856,21 C24.994921,22.6684146 23.6529767,24 21.9983345,24 L20.0016655,24 C18.3390201,24 17,22.652611 17,20.9905224 L17,11.0094776 C17,9.33663106 18.3438914,8 20.0016655,8 L21.9983345,8 C23.6578185,8 24.9949067,9.34226996 24.9999865,11 C25,11.5522847 25.4438648,12 26,12 C26.5522847,12 27,11.5561352 27,11 C27,8.23645112 24.7710151,6 21.9978137,6 L20.0021863,6 C17.2395551,6 15,8.23603796 15,10.9952534 L15,21.0047466 C15,23.7635489 17.2289849,26 20.0021863,26 L21.9978137,26 C24.7604449,26 27,23.763962 27,21.0047466 C27,20.4477153 26.5561352,20 26,20 L26,20 Z M9,14 C11.2091391,14 13,12.2091391 13,10 C13,7.79086089 11.2091391,6 9,6 C6.79086089,6 5,7.79086089 5,10 C5,12.2091391 6.79086089,14 9,14 L9,14 L9,14 Z M9,12 C10.1045696,12 11,11.1045696 11,10 C11,8.89543045 10.1045696,8 9,8 C7.89543045,8 7,8.89543045 7,10 C7,11.1045696 7.89543045,12 9,12 L9,12 L9,12 Z" id="degree-celsius" sketch:type="MSShapeGroup"></path>
        </g>
    </g>
</svg>

<svg width="32" height="32" viewBox="0 0 32 32" xmlns="http://www.w3.org/2000/svg"><path d="M26 20c-.552 0-1 .444-1 1a2.999 2.999 0 0 1-3.002 3h-1.996A3.002 3.002 0 0 1 17 20.99v-9.98A2.999 2.999 0 0 1 20.002 8h1.996A3.002 3.002 0 0 1 25 11c0 .552.444 1 1 1 .552 0 1-.444 1-1 0-2.764-2.229-5-5.002-5h-1.996A4.998 4.998 0 0 0 15 10.995v10.01A4.992 4.992 0 0 0 20.002 26h1.996A4.998 4.998 0 0 0 27 21.005.999.999 0 0 0 26 20zM9 14a4 4 0 1 0 0-8 4 4 0 0 0 0 8zm0-2a2 2 0 1 0 0-4 2 2 0 0 0 0 4z" fill="#929292" fill-rule="evenodd"/></svg>
